src/pos-icons/food-off.svg

<svg height="24" viewBox="0 0 24 24" width="24" xmlns="http://www.w3.org/2000/svg"><path d="m2 5.27 1.28-1.27 17.72 17.72-1.27 1.28-2-2h-2.23l-.29-2.5-2.24-2.26c-.11.44-.5.76-.97.76h-9a1 1 0 0 1 -1-1 1 1 0 0 1 1-1h5l1.5 1.5 1.5-1.5h.73l-1-1h-8.73a3 3 0 0 1 3-3h2.73zm12 2.73h2.23l-1.13-4.54 1.74-.46 1.25 5h3.91l-1.26 10.92-6.2-6.2zm-1 10a3 3 0 0 1 -3 3h-5a3 3 0 0 1 -3-3z"/></svg>

<?xml version="1.0" encoding="UTF-8"?><!DOCTYPE svg PUBLIC "-//W3C//DTD SVG 1.1//EN" "http://www.w3.org/Graphics/SVG/1.1/DTD/svg11.dtd"><svg xmlns="http://www.w3.org/2000/svg" xmlns:xlink="http://www.w3.org/1999/xlink" version="1.1" id="mdi-food-off" width="24" height="24" viewBox="0 0 24 24"><path d="M2,5.27L3.28,4L21,21.72L19.73,23L17.73,21H15.5L15.21,18.5L12.97,16.24C12.86,16.68 12.47,17 12,17H3A1,1 0 0,1 2,16A1,1 0 0,1 3,15H8L9.5,16.5L11,15H11.73L10.73,14H2A3,3 0 0,1 5,11H7.73L2,5.27M14,8H16.23L15.1,3.46L16.84,3L18.09,8H22L20.74,18.92L14.54,12.72L14,8M13,18A3,3 0 0,1 10,21H5A3,3 0 0,1 2,18H13Z" /></svg>
